svg/u1f469_200d_2695.svg

<svg viewBox="0 0 128 128" xmlns="http://www.w3.org/2000/svg">
  <g id="hairGroup_1_">
    <path id="hair_10_" d="M64.57,2.87c-41.01,0-40.68,37.92-40.68,38.52c0,24.56,1.88,59.25,11.71,72.9 c3.9,5.41,11.43,5.71,11.43,5.71L64,119.98L80.97,120c0,0,7.54-0.3,11.43-5.71c9.83-13.65,11.71-48.34,11.71-72.9 C104.1,40.79,105.58,2.87,64.57,2.87z" fill="#543930"/>
    <radialGradient id="hairHighlights_2_" cx="64.0002" cy="69.5615" gradientTransform="matrix(1 0 0 -1.1901 0 141.2215)" gradientUnits="userSpaceOnUse" r="47.5315">
      <stop offset="0.7936" stop-color="#6D4C41" stop-opacity="0"/>
      <stop offset="1" stop-color="#6D4C41"/>
    </radialGradient>
    <path id="hairHighlights_1_" d="M64.57,2.87c-41.01,0-40.68,37.92-40.68,38.52 c0,24.56,1.88,59.25,11.71,72.9c3.9,5.41,11.43,5.71,11.43,5.71L64,119.98L80.97,120c0,0,7.54-0.3,11.43-5.71 c9.83-13.65,11.71-48.34,11.71-72.9C104.1,40.79,105.58,2.87,64.57,2.87z" fill="url(#hairHighlights_2_)"/>
  </g>
  <linearGradient id="coat_1_" gradientTransform="matrix(1 0 0 -1 0 128)" gradientUnits="userSpaceOnUse" x1="64" x2="64" y1="49.342" y2="5.9932">
    <stop offset="5.160866e-04" stop-color="#F1F1F1"/>
    <stop offset="0.3361" stop-color="#EEEEEE"/>
    <stop offset="0.6289" stop-color="#E3E3E3"/>
    <stop offset="0.905" stop-color="#D1D1D1"/>
    <stop offset="1" stop-color="#C9C9C9"/>
  </linearGradient>
  <path id="coat" d="M64.14,96.46c-0.05,0-0.09,0-0.14,0c-25.65,0.03-52,7.1-52,24.99v3.01h1.5H15h98h1.5 h1.5v-3.01C116,104.59,89.9,96.46,64.14,96.46z" fill="url(#coat_1_)"/>
  <g id="neck_2_">
    <path d="M54.92,90.54v20.96c0,5.26,3.7,9.53,8.26,9.53h1.65c4.56,0,8.26-4.26,8.26-9.53V90.54H54.92z" fill="#E59600"/>
  </g>
  <polygon fill="#81D4FA" points="52.66,102.46 56.51,124.46 64.22,124.46 64.66,124.46 71.9,124.46 75.34,102.46 "/>
  <g>
    <linearGradient id="SVGID_1_" gradientTransform="matrix(1 0 0 -1 0 128)" gradientUnits="userSpaceOnUse" x1="50.531" x2="50.531" y1="3.9467" y2="31.4973">
      <stop offset="0" stop-color="#C9C9C9"/>
      <stop offset="0.2083" stop-color="#DFDFDF"/>
      <stop offset="0.4497" stop-color="#F1F1F1"/>
      <stop offset="0.7059" stop-color="#FCFCFC"/>
      <stop offset="0.9995" stop-color="#FFFFFF"/>
    </linearGradient>
    <path d="M54.88,96.41c-5.92,0.43-8.48,0.93-8.48,0.93l-3.29,7.62l5.25,4.36l-2.88,6.11l5.58,9.04 h1.17h1.17h2.53h1.01h1.01L54.88,96.41z" fill="url(#SVGID_1_)"/>
    <linearGradient id="SVGID_2_" gradientTransform="matrix(1 0 0 -1 0 128)" gradientUnits="userSpaceOnUse" x1="77.4695" x2="77.4695" y1="3.9467" y2="31.4973">
      <stop offset="0" stop-color="#C9C9C9"/>
      <stop offset="0.2083" stop-color="#DFDFDF"/>
      <stop offset="0.4497" stop-color="#F1F1F1"/>
      <stop offset="0.7059" stop-color="#FCFCFC"/>
      <stop offset="0.9995" stop-color="#FFFFFF"/>
    </linearGradient>
    <path d="M84.89,104.96l-3.29-7.62c0,0-2.56-0.5-8.48-0.93l-3.07,28.05h1.01h1.01h2.53h1.18h1.18 l5.58-9.04l-2.88-6.11L84.89,104.96z" fill="url(#SVGID_2_)"/>
  </g>
  <g id="stethoscope">
    <path d="M32.94,104.8c1.57-0.82,3.4-2.02,4.25-2.76 c1.92-1.67,6.47-5.97,9.86-2.94c3.66,3.21-0.1,8.27-1.55,10.37c-0.72,1.05-1.27,2.21-1.72,3.39" fill="none" stroke="#03A9F4" stroke-miterlimit="10" stroke-width="3"/>
    <linearGradient id="SVGID_3_" gradientTransform="matrix(1 0 0 -1 0 128)" gradientUnits="userSpaceOnUse" x1="34.0064" x2="24.5998" y1="23.0456" y2="12.2138">
      <stop offset="0" stop-color="#757575"/>
      <stop offset="1" stop-color="#000000"/>
    </linearGradient>
    <path d="M29.79,111.82c-0.49,0.08-1.02,0.29-1.54-0.21c-0.34-0.33-0.77-1.27-0.65-2.08 c0.12-0.82,1.03-1.16,2.97-1.99c1.51-0.64,2.9-1.29,4.16-2.14l-1.88-2.34c0,0-2.17,1.22-3.35,1.68c-2.09,0.8-4.47,1.71-4.86,4.35 c-0.42,2.84,1.14,4.86,2.34,5.77c0.98,0.75,1.92,1.11,2.83,1.17c1.41,0.09,2.35-0.83,2.35-2.25S30.77,111.65,29.79,111.82z" fill="url(#SVGID_3_)"/>
    <linearGradient id="SVGID_4_" gradientTransform="matrix(1 0 0 -1 0 128)" gradientUnits="userSpaceOnUse" x1="42.8131" x2="33.4065" y1="15.3977" y2="4.5659">
      <stop offset="0" stop-color="#757575"/>
      <stop offset="1" stop-color="#000000"/>
    </linearGradient>
    <path d="M37.03,117.25c-0.01,0.5-0.14,1.05,0.43,1.49c0.38,0.29,1.37,0.58,2.15,0.35 c0.79-0.24,1-1.18,1.54-3.22c0.42-1.58,0.86-3.06,1.52-4.43l2.58,1.52c0,0-0.9,2.32-1.18,3.56c-0.49,2.19-1.05,4.67-3.61,5.43 c-2.75,0.83-4.98-0.44-6.05-1.49c-0.88-0.87-1.37-1.74-1.56-2.64c-0.29-1.38,0.49-2.45,1.89-2.65S37.05,116.26,37.03,117.25z" fill="url(#SVGID_4_)"/>
    <path d="M54.92,94.14c-4.63,0.09-7.74,2.52-9.01,3.98l2.27,1.96c0.03-0.03,2.31-2.84,6.78-2.97L54.92,94.14z " fill="#03A9F4"/>
    <path d="M86.26,102.95c-2.43-5.47-6.19-7.55-8.21-8.3c-1.85-0.69-3.65-0.97-4.97-1.08v3.01 c1.08,0.1,2.49,0.34,3.93,0.88c1.58,0.59,4.53,2.24,6.51,6.71c2.78,6.26,3.48,7.89,3.49,7.89l2.75-1.19 C89.76,110.87,89.06,109.24,86.26,102.95z" fill="#03A9F4"/>
    <linearGradient id="SVGID_5_" gradientTransform="matrix(1 0 0 -1 0 128)" gradientUnits="userSpaceOnUse" x1="87.8561" x2="93.2311" y1="18.4269" y2="7.0519">
      <stop offset="0" stop-color="#757575"/>
      <stop offset="1" stop-color="#000000"/>
    </linearGradient>
    <circle cx="90.2" cy="114.53" fill="url(#SVGID_5_)" r="7"/>
    <circle cx="90.2" cy="114.53" fill="#9E9E9E" r="4"/>
  </g>
  <g id="head">
    <path d="M64,16.04L64,16.04L64,16.04c-17.2,0-33.13,12.79-33.13,39.91c0,21.78,13.49,34.67,25.23,38.83 c2.8,0.99,5.5,1.49,7.9,1.49c2.38,0,5.07-0.49,7.85-1.47c11.76-4.14,25.28-17.03,25.28-38.84C97.13,28.83,81.2,16.04,64,16.04z" fill="#FFCA28"/>
  </g>
  <g id="eyebrows_2_">
    <path d="M54.8,49.82c-0.93-1.23-3.07-3.01-7.23-3.01s-6.31,1.79-7.23,3.01c-0.41,0.54-0.31,1.17-0.02,1.55 c0.26,0.35,1.04,0.68,1.9,0.39s2.54-1.16,5.35-1.18c2.81,0.02,4.49,0.89,5.35,1.18c0.86,0.29,1.64-0.03,1.9-0.39 C55.1,50.99,55.21,50.36,54.8,49.82z" fill="#6D4C41"/>
    <path d="M87.67,49.82c-0.93-1.23-3.07-3.01-7.23-3.01c-4.16,0-6.31,1.79-7.23,3.01 c-0.41,0.54-0.31,1.17-0.02,1.55c0.26,0.35,1.04,0.68,1.9,0.39s2.54-1.16,5.35-1.18c2.81,0.02,4.49,0.89,5.35,1.18 c0.86,0.29,1.64-0.03,1.9-0.39C87.97,50.99,88.08,50.36,87.67,49.82z" fill="#6D4C41"/>
  </g>
  <g id="eyes_2_">
    <ellipse cx="47.56" cy="58.81" fill="#404040" rx="4.93" ry="5.1"/>
    <ellipse cx="80.44" cy="58.81" fill="#404040" rx="4.93" ry="5.1"/>
  </g>
  <path id="mouth_2_" d="M72.42,76.14c-3.18,1.89-13.63,1.89-16.81,0c-1.83-1.09-3.7,0.58-2.94,2.24 c0.75,1.63,6.44,5.42,11.37,5.42s10.55-3.79,11.3-5.42C76.09,76.72,74.25,75.05,72.42,76.14z" fill="#795548"/>
  <path id="nose_2_" d="M67.86,68.06c-0.11-0.04-0.21-0.07-0.32-0.08h-7.08c-0.11,0.01-0.22,0.04-0.32,0.08 c-0.64,0.26-0.99,0.92-0.69,1.63c0.3,0.71,1.71,2.69,4.55,2.69s4.25-1.99,4.55-2.69C68.85,68.98,68.5,68.32,67.86,68.06z" fill="#E59600"/>
  <g id="hairGroup">
    <path id="hair_5_" d="M64.57,2.87c-41.01,0-40.68,37.92-40.68,38.52c0,7.76,0.19,16.53,0.75,25.32l6.72-0.02 c-0.06-2.92,1.99-20.97,8.08-22.34c22.36-5.03,35.01-16.89,35.01-16.89c3.29,7.18,13.58,14.19,17.27,16.86 c3.03,2.19,4.27,18.55,4.21,22.38h7.4c0-0.05,0.02-0.1,0.02-0.16c0.56-8.75,0.74-17.46,0.74-25.17 C104.1,40.79,105.58,2.87,64.57,2.87z" fill="#543930"/>
    <radialGradient id="hairHighlights_3_" cx="64.3333" cy="65.537" gradientTransform="matrix(1 0 0 -1.2135 0 141.9952)" gradientUnits="userSpaceOnUse" r="49.788">
      <stop offset="0.7945" stop-color="#6D4C41" stop-opacity="0"/>
      <stop offset="1" stop-color="#6D4C41"/>
    </radialGradient>
    <path id="hairHighlights" d="M64.57,2.87c-41.01,0-40.68,37.92-40.68,38.52 c0,7.76,0.19,16.53,0.75,25.32l6.72-0.02c-0.06-2.92,1.99-20.97,8.08-22.34c22.36-5.03,35.01-16.89,35.01-16.89 c3.29,7.18,13.58,14.19,17.27,16.86c3.03,2.19,4.27,18.55,4.21,22.38h7.4c0-0.05,0.02-0.1,0.02-0.16 c0.56-8.75,0.74-17.46,0.74-25.17C104.1,40.79,105.58,2.87,64.57,2.87z" fill="url(#hairHighlights_3_)"/>
  </g>
</svg>

<svg viewBox="0 0 128 128" xmlns="http://www.w3.org/2000/svg">
  <defs>
    <linearGradient id="SVGID_1_" gradientTransform="matrix(1 0 0 -1 0 0)" gradientUnits="userSpaceOnUse" x1="50.531" x2="50.531" y1="-124.0533" y2="-96.5027">
      <stop offset="0" stop-color="#C9C9C9"/>
      <stop offset="0.2083" stop-color="#DFDFDF"/>
      <stop offset="0.4497" stop-color="#F1F1F1"/>
      <stop offset="0.7059" stop-color="#FCFCFC"/>
      <stop offset="0.9995" stop-color="#FFFFFF"/>
    </linearGradient>
    <linearGradient id="SVGID_2_" gradientTransform="matrix(1 0 0 -1 0 0)" gradientUnits="userSpaceOnUse" x1="77.4695" x2="77.4695" y1="-124.0533" y2="-96.5027">
      <stop offset="0" stop-color="#C9C9C9"/>
      <stop offset="0.2083" stop-color="#DFDFDF"/>
      <stop offset="0.4497" stop-color="#F1F1F1"/>
      <stop offset="0.7059" stop-color="#FCFCFC"/>
      <stop offset="0.9995" stop-color="#FFFFFF"/>
    </linearGradient>
    <linearGradient id="SVGID_3_" gradientTransform="matrix(1 0 0 -1 0 0)" gradientUnits="userSpaceOnUse" x1="34.0064" x2="24.5998" y1="-104.9544" y2="-115.7862">
      <stop offset="0" stop-color="#757575"/>
      <stop offset="1" stop-color="#000000"/>
    </linearGradient>
    <linearGradient id="SVGID_4_" gradientTransform="matrix(1 0 0 -1 0 0)" gradientUnits="userSpaceOnUse" x1="42.8131" x2="33.4065" y1="-112.6023" y2="-123.4341">
      <stop offset="0" stop-color="#757575"/>
      <stop offset="1" stop-color="#000000"/>
    </linearGradient>
    <linearGradient id="SVGID_5_" gradientTransform="matrix(1 0 0 -1 0 0)" gradientUnits="userSpaceOnUse" x1="87.8561" x2="93.2311" y1="-109.5731" y2="-120.9481">
      <stop offset="0" stop-color="#757575"/>
      <stop offset="1" stop-color="#000000"/>
    </linearGradient>
    <linearGradient id="coat_1_" gradientTransform="matrix(1 0 0 -1 0 0)" gradientUnits="userSpaceOnUse" x1="64" x2="64" y1="-78.658" y2="-122.0068">
      <stop offset="5.160866e-04" stop-color="#F1F1F1"/>
      <stop offset="0.3361" stop-color="#EEEEEE"/>
      <stop offset="0.6289" stop-color="#E3E3E3"/>
      <stop offset="0.905" stop-color="#D1D1D1"/>
      <stop offset="1" stop-color="#C9C9C9"/>
    </linearGradient>
    <radialGradient id="hairHighlights_2_" cx="64.0002" cy="-49.102058" gradientTransform="matrix(1 0 0 -1.1901 0 0)" gradientUnits="userSpaceOnUse" r="47.5315">
      <stop offset="0.7936" stop-color="#6D4C41" stop-opacity="0"/>
      <stop offset="1" stop-color="#6D4C41"/>
    </radialGradient>
    <radialGradient id="hairHighlights_3_" cx="64.3333" cy="-51.475938" gradientTransform="matrix(1 0 0 -1.2135 0 0)" gradientUnits="userSpaceOnUse" r="49.788">
      <stop offset="0.7945" stop-color="#6D4C41" stop-opacity="0"/>
      <stop offset="1" stop-color="#6D4C41"/>
    </radialGradient>
  </defs>
  <path id="hair_10_" d="M64.57,2.87 C23.56,2.87 23.89,40.79 23.89,41.39 C23.89,65.95 25.77,100.64 35.6,114.29 C39.5,119.7 47.03,120 47.03,120 L64,119.98 L80.97,120 C80.97,120 88.51,119.7 92.4,114.29 C102.23,100.64 104.11,65.95 104.11,41.39 C104.1,40.79 105.58,2.87 64.57,2.87 Z" fill="#543930"/>
  <path id="hairHighlights_1_" d="M64.57,2.87 C23.56,2.87 23.89,40.79 23.89,41.39 C23.89,65.95 25.77,100.64 35.6,114.29 C39.5,119.7 47.03,120 47.03,120 L64,119.98 L80.97,120 C80.97,120 88.51,119.7 92.4,114.29 C102.23,100.64 104.11,65.95 104.11,41.39 C104.1,40.79 105.58,2.87 64.57,2.87 Z" fill="url(#hairHighlights_2_)"/>
  <path id="coat" d="M64.14,96.46 C64.09,96.46 64.05,96.46 64,96.46 C38.35,96.49 12,103.56 12,121.45 L12,124.46 L13.5,124.46 L15,124.46 L113,124.46 L114.5,124.46 L116,124.46 L116,121.45 C116,104.59 89.9,96.46 64.14,96.46 Z" fill="url(#coat_1_)"/>
  <path d="M54.92,90.54 L54.92,111.5 C54.92,116.76 58.62,121.03 63.18,121.03 L64.83,121.03 C69.39,121.03 73.09,116.77 73.09,111.5 L73.09,90.54 L54.92,90.54 Z" fill="#E59600"/>
  <path d="M52.66,102.46 L56.51,124.46 L64.22,124.46 L64.66,124.46 L71.9,124.46 L75.34,102.46 Z" fill="#81D4FA"/>
  <path d="M54.88,96.41 C48.96,96.84 46.4,97.34 46.4,97.34 L43.11,104.96 L48.36,109.32 L45.48,115.43 L51.06,124.47 L52.23,124.47 L53.4,124.47 L55.93,124.47 L56.94,124.47 L57.95,124.47 L54.88,96.41 Z" fill="url(#SVGID_1_)"/>
  <path d="M84.89,104.96 L81.6,97.34 C81.6,97.34 79.04,96.84 73.12,96.41 L70.05,124.46 L71.06,124.46 L72.07,124.46 L74.6,124.46 L75.78,124.46 L76.96,124.46 L82.54,115.42 L79.66,109.31 L84.89,104.96 Z" fill="url(#SVGID_2_)"/>
  <path d="M32.246,103.47 Q34.787,102.143 36.205,100.909 Q36.296,100.83 36.497,100.653 Q43.833,94.213 48.05,97.982 Q52.562,101.939 46.914,110.064 Q46.789,110.243 46.734,110.322 Q45.875,111.575 45.182,113.394 L42.378,112.326 Q43.2,110.172 44.266,108.618 Q44.324,108.533 44.45,108.351 Q48.569,102.427 46.05,100.218 Q43.815,98.221 38.477,102.907 Q38.27,103.088 38.175,103.171 Q36.49,104.638 33.634,106.13 Z" fill="#03A9F4"/>
  <path d="M29.79,111.82 C29.3,111.9 28.77,112.11 28.25,111.61 C27.91,111.28 27.48,110.34 27.6,109.53 C27.72,108.71 28.63,108.37 30.57,107.54 C32.08,106.9 33.47,106.25 34.73,105.4 L32.85,103.06 C32.85,103.06 30.68,104.28 29.5,104.74 C27.41,105.54 25.03,106.45 24.64,109.09 C24.22,111.93 25.78,113.95 26.98,114.86 C27.96,115.61 28.9,115.97 29.81,116.03 C31.22,116.12 32.16,115.2 32.16,113.78 C32.16,112.36 30.77,111.65 29.79,111.82 Z" fill="url(#SVGID_3_)"/>
  <path d="M37.03,117.25 C37.02,117.75 36.89,118.3 37.46,118.74 C37.84,119.03 38.83,119.32 39.61,119.09 C40.4,118.85 40.61,117.91 41.15,115.87 C41.57,114.29 42.01,112.81 42.67,111.44 L45.25,112.96 C45.25,112.96 44.35,115.28 44.07,116.52 C43.58,118.71 43.02,121.19 40.46,121.95 C37.71,122.78 35.48,121.51 34.41,120.46 C33.53,119.59 33.04,118.72 32.85,117.82 C32.56,116.44 33.34,115.37 34.74,115.17 C36.14,114.97 37.05,116.26 37.03,117.25 Z" fill="url(#SVGID_4_)"/>
  <path d="M54.92,94.14 C50.29,94.23 47.18,96.66 45.91,98.12 L48.18,100.08 C48.21,100.05 50.49,97.24 54.96,97.11 L54.92,94.14 Z" fill="#03A9F4"/>
  <path d="M86.26,102.95 C83.83,97.48 80.07,95.4 78.05,94.65 C76.2,93.96 74.4,93.68 73.08,93.57 L73.08,96.58 C74.16,96.68 75.57,96.92 77.01,97.46 C78.59,98.05 81.54,99.7 83.52,104.17 C86.3,110.43 87,112.06 87.01,112.06 L89.76,110.87 C89.76,110.87 89.06,109.24 86.26,102.95 Z" fill="#03A9F4"/>
  <path d="M97.2,114.53 A7 7 0 1 1 83.2,114.53 A7 7 0 1 1 97.2,114.53 Z" fill="url(#SVGID_5_)"/>
  <path d="M94.2,114.53 A4 4 0 1 1 86.2,114.53 A4 4 0 1 1 94.2,114.53 Z" fill="#9E9E9E"/>
  <path d="M64,16.04 L64,16.04 L64,16.04 C46.8,16.04 30.87,28.83 30.87,55.95 C30.87,77.73 44.36,90.62 56.1,94.78 C58.9,95.77 61.6,96.27 64,96.27 C66.38,96.27 69.07,95.78 71.85,94.8 C83.61,90.66 97.13,77.77 97.13,55.96 C97.13,28.83 81.2,16.04 64,16.04 Z" fill="#FFCA28"/>
  <path d="M54.8,49.82 C53.87,48.59 51.73,46.81 47.57,46.81 C43.41,46.81 41.26,48.6 40.34,49.82 C39.93,50.36 40.03,50.99 40.32,51.37 C40.58,51.72 41.36,52.05 42.22,51.76 C43.08,51.47 44.76,50.6 47.57,50.58 C50.38,50.6 52.06,51.47 52.92,51.76 C53.78,52.05 54.56,51.73 54.82,51.37 C55.1,50.99 55.21,50.36 54.8,49.82 Z" fill="#6D4C41"/>
  <path d="M87.67,49.82 C86.74,48.59 84.6,46.81 80.44,46.81 C76.28,46.81 74.13,48.6 73.21,49.82 C72.8,50.36 72.9,50.99 73.19,51.37 C73.45,51.72 74.23,52.05 75.09,51.76 C75.95,51.47 77.63,50.6 80.44,50.58 C83.25,50.6 84.93,51.47 85.79,51.76 C86.65,52.05 87.43,51.73 87.69,51.37 C87.97,50.99 88.08,50.36 87.67,49.82 Z" fill="#6D4C41"/>
  <path d="M52.49,58.81 A4.93 5.1 0 1 1 42.63,58.81 A4.93 5.1 0 1 1 52.49,58.81 Z" fill="#404040"/>
  <path d="M85.37,58.81 A4.93 5.1 0 1 1 75.51,58.81 A4.93 5.1 0 1 1 85.37,58.81 Z" fill="#404040"/>
  <path id="mouth_2_" d="M72.42,76.14 C69.24,78.03 58.79,78.03 55.61,76.14 C53.78,75.05 51.91,76.72 52.67,78.38 C53.42,80.01 59.11,83.8 64.04,83.8 C68.97,83.8 74.59,80.01 75.34,78.38 C76.09,76.72 74.25,75.05 72.42,76.14 Z" fill="#795548"/>
  <path id="nose_2_" d="M67.86,68.06 C67.75,68.02 67.65,67.99 67.54,67.98 L60.46,67.98 C60.35,67.99 60.24,68.02 60.14,68.06 C59.5,68.32 59.15,68.98 59.45,69.69 C59.75,70.4 61.16,72.38 64,72.38 C66.84,72.38 68.25,70.39 68.55,69.69 C68.85,68.98 68.5,68.32 67.86,68.06 Z" fill="#E59600"/>
  <path id="hair_5_" d="M64.57,2.87 C23.56,2.87 23.89,40.79 23.89,41.39 C23.89,49.15 24.08,57.92 24.64,66.71 L31.36,66.69 C31.3,63.77 33.35,45.72 39.44,44.35 C61.8,39.32 74.45,27.46 74.45,27.46 C77.74,34.64 88.03,41.65 91.72,44.32 C94.75,46.51 95.99,62.87 95.93,66.7 L103.33,66.7 C103.33,66.65 103.35,66.6 103.35,66.54 C103.91,57.79 104.09,49.08 104.09,41.37 C104.1,40.79 105.58,2.87 64.57,2.87 Z" fill="#543930"/>
  <path id="hairHighlights" d="M64.57,2.87 C23.56,2.87 23.89,40.79 23.89,41.39 C23.89,49.15 24.08,57.92 24.64,66.71 L31.36,66.69 C31.3,63.77 33.35,45.72 39.44,44.35 C61.8,39.32 74.45,27.46 74.45,27.46 C77.74,34.64 88.03,41.65 91.72,44.32 C94.75,46.51 95.99,62.87 95.93,66.7 L103.33,66.7 C103.33,66.65 103.35,66.6 103.35,66.54 C103.91,57.79 104.09,49.08 104.09,41.37 C104.1,40.79 105.58,2.87 64.57,2.87 Z" fill="url(#hairHighlights_3_)"/>
</svg>
